!!!!SEGMENT: pl-kk--kk-i-493--002_anonim--da-pacem-domine.krn
!!!cenid: 17xx:1836
!!!COM: Anonim
!!!COM-rismID: pe30004985
!!!CDT:
!!!CNT:
!!!OTL: Da pacem Domine
!!!PDT:
!!!AGN:
!!!YEC: Copyright 2022 Narodowy Instytut Fryderyka Chopina (https://polishscores.org)
!!!YEM: License CC-BY-4.0 (https://creativecommons.org/licenses/by/4.0)
!!!SMS-siglum: PL-Kk
!!!SMS-shelfmark: Kk.I.493
!!!SMS-shelfwork: 002 W
!!!SMS-variant:
!!!SMS-altvar:
!!!NIFC-rismSourceID: 1001136760
!!!NIFC-rismChildID: 1001136768
!!!NIFC-islandoraID: pl-kk:14560
!!!URL-pdf-islandora: https://repozytorium.nifc.pl/islandora/object/pl-kk%3A14560/datastream/PDF/view
!!!URL-scan: https://polish.musicsources.pl/pl/lokalizacje/galeria/rekopisy/6101 @EN{Scan on Polish Music Sources Website} @PL{Skany w portalu Dziedzictwo Muzyki Polskiej w otwartym dostępie}
!!!IIIF:
!!!ONB-nifc:
!!!AIN: 1 alto 1 empty 1 soprn 1 tenor
!!!key:
**kern	**text	**kern	**text	**kern	**text	**kern	**text
*group1	*	*group1	*	*group1	*	*group1	*
*part4	*	*part3	*	*part2	*	*part1	*
*staff4	*	*staff3	*	*staff2	*	*staff1	*
*Iempty	*	*Itenor	*	*Ialto	*	*Isoprn	*
*I"Baſso	*	*I"Tenore	*	*I"Alto	*	*I"Soprano.	*
*I'B	*	*I'T	*	*I'A	*	*I'S.	*
*clefF4	*	*clefC4	*	*clefC3	*	*clefC1	*
*k[]	*	*k[]	*	*k[]	*	*k[]	*
*C:	*	*C:	*	*C:	*	*C:	*
*M2/2	*	*M2/2	*	*M2/2	*	*M2/2	*
*met(c|)	*	*met(c|)	*	*met(c|)	*	*met(c|)	*
=1	=1	=1	=1	=1	=1	=1	=1
!LO:TX:a:t=Antiph 2.	!	!LO:TX:a:t=Antiph 2.	!	!LO:TX:a:t=Antiph 2.	!	!LO:TX:a:t=Antiph 2.	!
1C	Da	1c	Da	1g	Da	1ee	Da
=2	=2	=2	=2	=2	=2	=2	=2
*	*	*2\right	*	*2\right	*	*2\right	*
2BB/	pa-	2d\	pa-	2g\	pa-	2ff\	pa-
2C/	-cem	2c\	-cem	2g\	-cem	2ee\	-cem
=3	=3	=3	=3	=3	=3	=3	=3
*2\right	*	*	*	*	*	*	*
2.G\	Do-	2c\	Do-	2.g\	Do-	2.dd\	Do-
.	.	2B\	-mi-	.	.	.	.
4G\	-mi-	.	.	4g\	-mi-	4dd\	-mi-
=4	=4	=4	=4	=4	=4	=4	=4
1C	-ne	1c	-ne	1g	-ne	1ee	-ne
!LO:LB:g=original	!	!	!	!	!	!	!
=5	=5	=5	=5	=5	=5	=5	=5
2c\	in	2c\	in	2g\	in	2ee\	in
2c\	di-	2c\	di-	2g\	di-	2ee\	di-
!	!	!LO:LB:g=original	!	!LO:LB:g=original	!	!LO:LB:g=original	!
=6	=6	=6	=6	=6	=6	=6	=6
2B\	-e-	2d\	-e-	2g\	-e-	2dd\	-e-
2G\	-bus	2e\	-bus	2g\	-bus	2b\	-bus
=7	=7	=7	=7	=7	=7	=7	=7
1A	nos-	1c	nos-	2g\	nos-	1cc	nos-
.	.	.	.	2f#X\	.	.	.
=8	=8	=8	=8	=8	=8	=8	=8
1G	-tris	1d	-tris	1g	-tris	1b	-tris
=9	=9	=9	=9	=9	=9	=9	=9
!	!	!	!	!LO:TX:a:t=1	!	!	!
2G\	qui-	2d\	qui-	1r	.	2b\	qui-
2G\	-a	2d\	-a	.	.	2b\	-a
!LO:LB:g=original	!	!	!	!	!	!	!
=10	=10	=10	=10	=10	=10	=10	=10
1E	non	1e	non	2g\	qui-	1cc	non
.	.	.	.	2g\	-a	.	.
!	!	!	!	!	!	!LO:LB:g=original	!
=11	=11	=11	=11	=11	=11	=11	=11
2BB/	qui-	2d\	qui-	1g	non	2ff\	qui-
2BB/	-a	2d\	-a	.	.	2ff\	-a
!	!	!LO:LB:g=original	!	!LO:LB:g=original	!	!	!
=12	=12	=12	=12	=12	=12	=12	=12
2C/	non	2c\	non	2g\	non	2ee\	non
2C/	est	2c\	est	2g\	est	2ee\	est
=13	=13	=13	=13	=13	=13	=13	=13
2.F\	a-	2c\	a-	2.a\	a-	2ee\	a-
.	.	4B\	.	.	.	2dd\	-li-
4F\	-li-	4A\	-li-	4a\	-li-	.	.
!LO:LB:g=original	!	!	!	!	!	!	!
=14	=14	=14	=14	=14	=14	=14	=14
1E	-us	1B	-us	1g#X	-us	1ee	-us
=15	=15	=15	=15	=15	=15	=15	=15
!LO:TX:a:t=1	!	!LO:TX:a:t=1	!	!	!	!	!
1r	.	1r	.	4e\	ni-	4ee\	ni-
.	.	.	.	4f#X\	-si	4ee\	-si
.	.	.	.	2g#X\	tu	2dd\	tu
!	!	!	!	!	!	!LO:LB:g=original	!
=16	=16	=16	=16	=16	=16	=16	=16
4A\	ni-	4e\	ni-	2a\	De-	2cc\	De-
4A\	-si	4e\	-si	.	.	.	.
2G\	tu	2c#X\	tu	2e\	-us	2a\	-us
!	!	!LO:LB:g=original	!	!LO:LB:g=original	!	!	!
=17	=17	=17	=17	=17	=17	=17	=17
2F\	De-	2A\	De-	4d\	ni-	4dd\	ni-
.	.	.	.	4e\	-si	4dd\	-si
2D\	-us	2A\	-us	2f#X\	tu	2cc\	tu
!LO:LB:g=original	!	!	!	!	!	!	!
=18	=18	=18	=18	=18	=18	=18	=18
4G\	ni-	4d\	ni-	2g\	De-	2b\	De-
4G\	-si	4d\	-si	.	.	.	.
2F\	tu	2B\	tu	2d\	-us	2g\	-us
=19	=19	=19	=19	=19	=19	=19	=19
2E\	De-	2G/	De-	2c\	De-	[<1cc	nos-
2C/	-us	2G/	-us	2e\	-us	.	.
!	!	!	!	!	!	!LO:LB:g=original	!
=20	=20	=20	=20	=20	=20	=20	=20
[1GG	nos-	[1G	nos-	[<1d	nos-	2cc\]	.
.	.	.	.	.	.	4b\	.
.	.	.	.	.	.	4a\	.
=21	=21	=21	=21	=21	=21	=21	=21
1GG]	.	1G_	.	1d]	.	1b	.
!LO:LB:g=original	!	!LO:LB:g=original	!	!LO:LB:g=original	!	!	!
=22	=22	=22	=22	=22	=22	=22	=22
!	!	!LO:TX:b:t=P:problem=brak zakończenia ligatury	!	!	!	!	!
1C	-ter	2G/]	-ter	1e	-ter	1cc	-ter
.	.	4c\	ni-	.	.	.	.
.	.	4c\	-si	.	.	.	.
=23	=23	=23	=23	=23	=23	=23	=23
4C/	ni-	1c	tu	4e\	ni-	4cc\	ni-
4D/	-si	.	.	4fn\	-si	4cc\	-si
2E\	tu	.	.	2g\	tu	2b-X\	tu
=24	=24	=24	=24	=24	=24	=24	=24
2F\	De-	2c\	De-	2f\	De-	2a\	De-
2C/	-us	2c\	-us	2e\	-us	2g\	-us
!LO:LB:g=original	!	!	!	!	!	!LO:LB:g=original	!
=25	=25	=25	=25	=25	=25	=25	=25
0E	nos-	0c	nos-	0f	nos-	0a	nos-
=26	=26	=26	=26	=26	=26	=26	=26
0C	-ter.	0c	-ter.	0e	-ter.	0g	-ter.
==	==	==	==	==	==	==	==
*-	*-	*-	*-	*-	*-	*-	*-
!!!system-decoration: [g1]
!!!RDF**kern: < = below
!!!ENC: Marta Lawrence
!!!END: 2021-01-02
!!!ENC: Andrzej Gręziak
!!!END: 2020-12-30
